X:1
T:Partition sans titre
C:Compositeur / Arrangeur
L:1/8
M:4/4
I:linebreak $
K:D
V:1 treble nm="Violon" snm="Vln."
V:1
 (3ABc |"D" dAFA DAFA |"A" EAFA DABc |"D" dAFA DAEA |"A" eedf eABc |"D" dAFA DAFA |"A" EAFA DABc | %7
"D" dcdf edBc |1 dfec d2 :|2 dfec d2 c2 |:"Bm" BABc dcde | fefg fedc | BABc dcBA |"A7" GFGA G2 F2 | %14
"Bm" BABc dcde | fefg fedc | BABc dcBA |1 Bbfd B3 F :|2 Bbfd B2 |] %19
